X: 21381
M: 6/8
L: 1/8
K: D
V: 1 name="1"
dcd Adf | a^gb a3 | =gfg ABc | def A2A |\
dcd Adf | a^gb a3 | aef gBc | d2f d2 H|]
a |\
b2b bag | a2a agf | g2g gfe | a3 fga |\
b2b bag | a2a agf | eba gBc | d2f "^D.C."d2 |]
dDF cdf | eA,C EAc | dDF Adf | ef^g a3 |\
b[gB]b a[fA]a | gbg faf | efg ABc | d2f "^D.C."d2 |]


